!!!!SEGMENT: 070-1-MEIf-002.krn
!!!COM: Chopin, Fryderyk
!!!OTL: Valse No. 4
!!!OPS: Op. 70
!!!PTL: Œuvres Posthumes pour Piano
!!!PPR: Meissonnier fils
!!!PPP: Paris
!!!NIFC-rismID: 1001033216
!!!NIFC-shelfmark: PL-Wbfc 4766/n
!!!OMD: Tempo Giusto.
!!!OMD: [quarter] = 144
!!!system-decoration: {(s1,s2)}
**kern	**kern	**dynam
*part1	*part1	*part1
*staff2	*staff1	*
*	*I"4e VALSE	*
*clefF4	*clefG2	*
*k[b-e-a-d-]	*k[b-e-a-d-]	*
*M3/4	*M3/4	*
*MM144	*MM144	*
!	!	!LO:DY:rj
4r	[>4cc	mf
=1	=1	=1
*^	*	*
*ped	*	*	*
!	!	!LO:TX:a:t=P:w źródle w niektórych taktach łuki dopisane ołówkiem:problem	!
4ryy	2.F	4cc]	.
4c 4A-	.	(>8dd-L	>
.	.	8cc	.
4c 4A-	.	8b-	.
*Xped	*	*	*
.	.	8a-J	]
=2	=2	=2	=2
*ped	*	*	*
4ryy	2.E-	4.g)	.
4c 4A- 4F	.	.	.
.	.	8f	.
4c 4A- 4F	.	4f^<	.
*Xped	*	*	*
.	.	.	.
=3	=3	=3	=3
4re	2D-	4ff	.
2B- 2F	.	(>8b-L	<
.	.	8cc	.
.	4BB-	8ee-	.
.	.	8dd-J)	[
*v	*v	*	*
=4	=4	=4
.	16qqcc/L	.
.	16qqdd-/	.
.	16qqee-/J	.
*ped	*	*
4FF	4.dd-/	.
4a-> 4c>	.	.
.	8cc	.
4a-> 4c>	4cc^>	.
*Xped	*	*
.	.	.
=5	=5	=5
*^	*	*
*ped	*	*	*
4ryy	2.En	(>8bnL	.
.	.	8cc	.
.	.	8qee-/	.
4g> 4c> 4B->	.	8dd-	<
.	.	8cc	.
4g> 4c> 4B->	.	8ff	.
*Xped	*	*	*
.	.	8ggJ)	.
=6	=6	=6	=6
*ped	*	*	*
4ryy	2F	(>8aa-L	.
.	.	8a-	.
4f> 4c> 4A->	.	8een	.
.	.	8gg	.
4ryy	4AA-/	8ff	.
*Xped	*	*	*
.	.	8fJ)	.
!!LO:LB:g=original
=7	=7	=7	=7
*ped	*	*	*
4ryy	2BB-	(>8ccL/	>
.	.	8ee-	.
4d- 4G 4F/	.	8dd-	.
*Xped	*	*	*
.	.	8d-	.
4ryy	4BBB-/	8cc	.
.	.	8b-J)	]
*v	*v	*	*
=8	=8	=8
*ped	*	*
4CC	(>8gL	.
.	8cc	.
4en 4G 4C	8bn	<
*Xped	*	*
.	8cc	.
4r	8dd-	.
.	8ddnJ)	[
=9	=9	=9
*^	*	*
*ped	*	*	*
4ryy	2.A-	4ee-	.
4e- 4c	.	(>8ffL	>
.	.	8ee-	.
4e- 4c	.	8dd-	.
*Xped	*	*	*
.	.	8ccJ)	]
=10	=10	=10	=10
*ped	*	*	*
4ryy	2.G	4.b-/	.
4e- 4c 4A-	.	.	.
.	.	8a-/	.
4e- 4c 4A-	.	4a-/	.
*Xped	*	*	*
.	.	.	.
=11	=11	=11	=11
*ped	*	*	*
4ryy	2.F	4aa-	.
4e- 4c 4A-\	.	(>8ccL	.
.	.	8ee-	.
4e- 4c 4A-\	.	8gg	.
*Xped	*	*	*
.	.	8ffJ)	.
=12	=12	=12	=12
*ped	*	*	*
4ryy	2.BB-	4.ee-	.
4dn 4B- 4A-\	.	.	.
.	.	8ddn	.
4dny 4B- 4A-\	.	4dd^<	.
*Xped	*	*	*
.	.	.	.
=13	=13	=13	=13
*ped	*	*	*
4ryy	2.BB-	4.ccc	f
4f 4B- 4B-\	.	.	.
.	.	(>8bb-L	.
4f 4B- 4B-\	.	8aan	.
*Xped	*	*	*
.	.	8aa-XJ)	.
!!LO:LB:g=original
=14	=14	=14	=14
*ped	*	*	*
4ryy	2.BB-	(>8aa-L	>
.	.	8gg	.
4e- 4B- 4G\	.	8ff	.
.	.	8ee-	.
4e- 4B- 4G\	.	8ddn	.
*Xped	*	*	*
.	.	8ccJ)	]
=15	=15	=15	=15
*ped	*	*	*
4ryy	2.BB-	(>8ccL	.
.	.	8b-	.
4f 4B- 4A-X\	.	8an	.
.	.	8b-	.
.	.	8qddn	.
4f 4B- 4A-X\	.	8cc	.
*Xped	*	*	*
.	.	8b-J)	.
=16	=16	=16	=16
*ped	*	*	*
4ryy	2.BB-	(>8ccL	.
.	.	8b-	.
4e- 4B- 4G\	.	8an	.
.	.	8b-	.
.	.	8qddn	.
4e- 4B- 4G\	.	8cc	.
*Xped	*	*	*
.	.	8b-J)	.
=17	=17	=17	=17
*ped	*	*	*
4ryy	2.BB-	4b-	p
4dn 4B- 4A-\	.	(>8cccL	>
.	.	8bb-	.
4dny 4B- 4A-\	.	8aan	.
*Xped	*	*	*
.	.	8aa-XJ)	]
*v	*v	*	*
=18	=18	=18
4E-	(<8ff#XL/	.
.	8gg	.
4g 4e- 4B-	8ddn	.
.	8ee-	.
4g- 4c 4An	8e-	.
.	8ccJ)	.
=19	=19	=19
4BB-	(<8b-L/	.
.	8B-	.
4e- 4B-	8g	.
.	8b-	.
4dn 4A-	8f	.
.	8b-J)	.
!!LO:LB:g=original
=20	=20	=20
*	*^	*
*^	*	*	*
4ryy	2E-	4.e-	2.e-	.
!	!	!LO:TX:b:Bi:t=riten.	!	!
.	.	.	.	.
4B- 4G/	.	.	.	.
.	.	8dd-	.	.
.	.	16qqcc/L	.	.
.	.	16qqdd-/	.	.
.	.	16qqee-/J	.	.
*ped	*	*	*	*
4en: 4B-: 4G: 4C:\	4ryy	(<8dd-L	.	.
*Xped	*	*	*	*
.	.	8ccJ)	.	.
*v	*v	*	*	*
*	*v	*v	*
=21	=21	=21
*^	*	*
*ped	*	*	*
!	!	!LO:TX:b:B:t=tempo.	!
4ryy	2.F	4cc	.
4c 4A-	.	(>8dd-L	.
.	.	8cc	.
4c 4A-	.	8b-	.
*Xped	*	*	*
.	.	8a-J)	.
=22	=22	=22	=22
*ped	*	*	*
4ryy	2.E-	4.g	.
4c 4A- 4F	.	.	.
.	.	8f	.
4c 4A- 4F	.	4f^<	.
*Xped	*	*	*
.	.	.	.
=23	=23	=23	=23
4re	2D-	4ff	.
2B- 2F	.	(>8b-L	<
.	.	8cc	.
.	4BB-/	8ee-	.
.	.	8dd-J)	[
*v	*v	*	*
=24	=24	=24
.	16qqcc/L	.
.	16qqdd-/	.
.	16qqee-/J	.
*ped	*	*
4FF	4.dd-/	.
4a-> 4c>	.	.
.	8cc	.
4a-> 4c>	4cc^>	.
*Xped	*	*
.	.	.
=25	=25	=25
*^	*	*
*ped	*	*	*
4ryy	2.En	(>8bnL	.
.	.	8cc	.
.	.	8qee-/	.
4g> 4c> 4B->	.	8dd-	<
.	.	8cc	.
4g> 4c> 4B->	.	8ff	.
*Xped	*	*	*
.	.	8ggJ)	.
=26	=26	=26	=26
*ped	*	*	*
4ryy	2F	(>8aa-L	.
.	.	8a-	.
4f> 4c> 4A->	.	8een	.
.	.	8gg	.
4ryy	4AA-/	8ff	.
*Xped	*	*	*
.	.	8fJ)	.
!!LO:LB:g=original
=27	=27	=27	=27
*ped	*	*	*
4ryy	2BB-	(>8ccL/	>
.	.	8ee-	.
4d- 4G 4F/	.	8dd-	.
*Xped	*	*	*
.	.	8d-	.
4ryy	4BBB-/	8cc	]
.	.	8b-J)	.
*v	*v	*	*
=28	=28	=28
*ped	*	*
4CC	(>8gL	.
.	8cc	.
4en 4G 4C	8bn	<
*Xped	*	*
.	8cc	.
4r	8dd-	.
.	8ddnJ)	[
=29	=29	=29
*^	*	*
*ped	*	*	*
4ryy	2.A-	4ee-	.
4e- 4c	.	(>8ffL	>
.	.	8ee-	.
4e- 4c	.	8dd-	.
*Xped	*	*	*
.	.	8ccJ)	]
=30	=30	=30	=30
*ped	*	*	*
4ryy	2.G	4.b-/	.
4e- 4c 4A-	.	.	.
.	.	8a-/	.
4e- 4c 4A-	.	4a-/	.
*Xped	*	*	*
.	.	.	.
=31	=31	=31	=31
*ped	*	*	*
4ryy	2.F	4aa-	.
4e- 4c 4A-\	.	(>8ccL	.
.	.	8ee-	.
4e- 4c 4A-\	.	8gg	.
*Xped	*	*	*
.	.	8ffJ)	.
=32	=32	=32	=32
*ped	*	*	*
4ryy	2.BB-	4.ee-	.
4dn 4B- 4A-\	.	.	.
.	.	8ddn	.
4dny 4B- 4A-\	.	4dd^<	.
*Xped	*	*	*
.	.	.	.
=33	=33	=33	=33
*ped	*	*	*
4ryy	2.BB-	4.ccc	f
4f 4B- 4B-\	.	.	.
.	.	(>8bb-L	.
4f 4B- 4B-\	.	8aan	.
*Xped	*	*	*
.	.	8aa-XJ)	.
!!LO:LB:g=original
=34	=34	=34	=34
*ped	*	*	*
4ryy	2.BB-	(>8aa-L	>
.	.	8gg	.
4e- 4B- 4G\	.	8ff	.
.	.	8ee-	.
4e- 4B- 4G\	.	8ddn	.
*Xped	*	*	*
.	.	8ccJ)	]
=35	=35	=35	=35
*ped	*	*	*
4ryy	2.BB-	(>8ccL	.
.	.	8b-	.
4f 4B- 4A-X\	.	8an	.
.	.	8b-	.
.	.	8qddn	.
4f 4B- 4A-\	.	8cc	.
*Xped	*	*	*
.	.	8b-J)	.
=36	=36	=36	=36
*ped	*	*	*
4ryy	2.BB-	(>8ccL	.
.	.	8b-	.
4e- 4B- 4G\	.	8an	.
.	.	8b-	.
.	.	8qddn	.
4e- 4B- 4G\	.	8cc	.
*Xped	*	*	*
.	.	8b-J)	.
=37	=37	=37	=37
*ped	*	*	*
4ryy	2.BB-	4b-	p
.	.	.	>
4dn 4B- 4A-\	.	(>8cccL	.
.	.	8bb-	.
4dny 4B- 4A-\	.	8aan	.
*Xped	*	*	*
.	.	8aa-XJ)	]
*v	*v	*	*
=38	=38	=38
4E-	(<8ff#XL/	.
.	8gg	.
4g 4e- 4B-	8ddn	.
.	8ee-	.
4g- 4c 4An	8e-	.
.	8ccJ)	.
=39	=39	=39
4BB-	(<8b-L/	.
.	8B-	.
4e- 4B-	8g	.
.	8b-	.
4dn 4A-	8f	.
.	8b-J)	.
=40	=40	=40
*^	*	*
4ryy	2E-	2e-	.
4e- 4B- 4G/	.	.	.
4ryy	4r	4en	.
!!LO:PB:g=original
=41	=41	=41	=41
*ped	*	*	*
4ryy	2.D-	2f^<	.
4d- 4B- 4F	.	.	.
4d- 4B- 4F	.	4g	.
*Xped	*	*	*
.	.	.	.
=42	=42	=42	=42
.	.	16qa-L	.
.	.	16qb-J	.
4ryy	2.BB-	4a-	.
4d- 4A- 4F	.	(<8gL	.
.	.	8a-	.
4d- 4G 4E-	.	8cc	.
.	.	8b-J)	.
=43	=43	=43	=43
4ryy	2.E-	4r	.
4c 4A-	.	(<8dnL	.
.	.	8f)	.
4c 4A-	.	(<8e-	.
.	.	8a-J)	.
=44	=44	=44	=44
*ped	*	*	*
4ryy	2.EE-	2.c^<	.
4A- 4E-	.	.	.
4A- 4E-	.	.	.
*Xped	*	*	*
.	.	.	.
*v	*v	*	*
=45	=45	=45
*ped	*	*
4EE-	(>8G<L	f <
.	8d-	.
4d- 4G 4E-	8e-	.
.	8g	.
4e- 4B- 4G	8dd-	.
*Xped	*	*
.	8ffJ)	[
=46	=46	=46
.	[<8qdd-	.
*ped	*	*
4E-	2ff 2dd-]/	sf
4g> 4e-> 4d->	.	.
4g> 4e-> 4d->	4ee- 4dd-/	.
*Xped	*	*
.	.	.
=47	=47	=47
.	16qqee-L	.
.	16qqffJ	.
*ped	*	*
4AA-	4ee- 4cc/	.
4a-> 4e->	8ddnL 8bn	.
.	8ee- 8cc	.
4a-> 4e->	8ff 8dd-X	.
*Xped	*	*
.	8ee-J 8cc	.
!!LO:LB:g=original
=48	=48	=48
*ped	*	*
4AA-	2aa- 2cc	.
4c 4A- 4E-	.	.
4c 4A- 4E-	(>4g	.
*Xped	*	*
.	.	.
=49	=49	=49
*^	*	*
*ped	*	*	*
4ryy	2.D-	2f^<	.
4d- 4B- 4F	.	.	.
4d- 4B- 4F	.	4g)	.
*Xped	*	*	*
.	.	.	.
=50	=50	=50	=50
.	.	16qa-L	.
.	.	16qb-J	.
*ped	*	*	*
4ryy	2.BB-	4a-	.
4d- 4F	.	8gL	.
*Xped	*	*	*
.	.	8a-	.
4d- 4G 4E-	.	8cc^<	.
.	.	8b-J	.
=51	=51	=51	=51
*ped	*	*	*
4ryy	2.AA-	4r	.
4c 4A- 4E-\	.	8dnL	.
.	.	8f	.
4c 4A- 4E-\	.	8e-	.
*Xped	*	*	*
.	.	8a-J	.
=52	=52	=52	=52
*ped	*	*	*
4ryy	2.AA-	2.c	.
4F 4Dn	.	.	.
*Xped	*	*	*
4F 4D	.	.	.
.	.	.	.
*v	*v	*	*
=53	=53	=53
*ped	*	*
!	!	!LO:DY:rj
4GG	(>8G<L	f
.	8c<	.
4c 4G 4E-	8e-	.
.	8g	.
4c 4G 4E-	8.cc	.
*Xped	*	*
.	16ee-Jk)	.
=54	=54	=54
.	[<8qg	.
*ped	*	*
!	!LO:S:s=2:note:problem:note-level slur	!
4GG	2ee- 2g]	.
4g 4Bn 4G	.	.
4g 4B 4G	[>4ddn [<4f	.
*Xped	*	*
.	.	.
!!LO:LB:g=original
=55	=55	=55
*ped	*	*
!LO:TX:b:t=P:znak pedalizacji przed nutą:problem	!	!
4C\	4..ddnX] 4..f]	>
4g 4c 4G	.	.
.	16cc 16e-	.
4g 4c 4G	[>4cc^< [<4e-	.
*Xped	*	*
.	.	.
=56	=56	=56
*ped	*	*
4C\	4..cc] 4..e-]	pp
4g 4c 4G	.	.
.	.	.
.	16cc 16e-	.
4g 4c 4G	[>4cc^< 4e-	.
*Xped	*	*
.	.	.
=57	=57	=57
*^	*	*
*ped	*	*	*
4ryy	2.D-	4cc]	.
4B- 4A-	.	4f^<	.
4B- 4A-	.	4g^<	.
*Xped	*	*	*
.	.	.	.
=58	=58	=58	=58
.	.	16qa-L	.
.	.	16qb-J	.
*ped	*	*	*
4ryy	2.BB-	4a-	.
4d- 4A- 4F\	.	8gL	<
*Xped	*	*	*
.	.	8a-	.
4d- 4G 4E-\	.	8cc	.
.	.	8b-J	[
=59	=59	=59	=59
*ped	*	*	*
4ryy	2.E-	4r	.
4c 4A-\	.	(<8dnL	.
.	.	8f	.
4c 4A-\	.	8e-	.
*Xped	*	*	*
.	.	8a-J)	.
=60	=60	=60	=60
*ped	*	*	*
4ryy	2EE-	2.c	.
4c 4A- 4E-\	.	.	.
4A- 4E-\	4ryy	.	.
*Xped	*	*	*
.	.	.	.
*v	*v	*	*
=61	=61	=61
*ped	*	*
4EE-	(>8G<L	.
.	8d-	<
4d- 4G 4E-	8e-	.
.	8g	.
4e- 4B- 4G	8dd-	.
*Xped	*	*
.	8ffJ)	.
.	.	[
!!LO:LB:g=original
=62	=62	=62
.	8qdd-	.
*ped	*	*
!	!	!LO:DY:rj
4E-	2ff 2dd-/	f
4g> 4e-> 4d->	.	.
4g> 4e-> 4d->	4ee- 4dd-/	.
*Xped	*	*
.	.	.
=63	=63	=63
.	16qqee-L	.
.	16qqffJ	.
4AA-	4ee- 4cc/	.
4a-> 4e->	8ddnL 8bn	.
.	8ee- 8cc	.
4a-> 4e->	8ff 8dd-X	.
.	8ee-J 8cc	.
=64	=64	=64
*ped	*	*
4AA-	2aa-^< 2cc	.
4c 4A- 4E-	.	.
4c 4A- 4E-	4g	.
*Xped	*	*
.	.	.
=65	=65	=65
*^	*	*
*ped	*	*	*
4ryy	2D-	2f^<	.
4d- 4B- 4F/	.	.	.
4d- 4B- 4F/	4ryy	4g	.
*Xped	*	*	*
.	.	.	.
=66	=66	=66	=66
.	.	16qa-L	.
.	.	16qb-J	.
*ped	*	*	*
4ryy	2BB-	4a-	.
4d- 4F\	.	(<8gL	<
.	.	8a-	.
4d- 4G 4E-\	4ryy	8cc	.
*Xped	*	*	*
.	.	8b-J)	.
.	.	.	[
=67	=67	=67	=67
*ped	*	*	*
4ryy	2AA-	4r	.
4c 4A- 4E-\	.	(<8dnL	.
.	.	8f	.
4c 4A- 4E-\	4ryy	8e-	.
*Xped	*	*	*
.	.	8a-J)	.
=68	=68	=68	=68
*ped	*	*	*
4ryy	2.EE-	2.c	.
4A- 4E-	.	.	.
4A- 4E-	.	.	.
*Xped	*	*	*
.	.	.	.
!!LO:LB:g=original
=69	=69	=69	=69
*ped	*	*	*
4ryy	2.E-	4r	.
4B- 4A-	.	(<8dnL	<
.	.	8e-	.
4B- 4A-	.	8f	.
*Xped	*	*	*
.	.	8gJ)	.
=70	=70	=70	=70
*ped	*	*	*
4re	2.E-	4fT>	.
4dn 4B- 4A-	.	(<8enL	.
.	.	8f	.
4d 4B- 4A-	.	8g	.
*Xped	*	*	*
.	.	8a-J)	.
=71	=71	=71	=71
*ped	*	*	*
4re	2.E-	4a-T>	.
4e- 4d-X	.	(<8gL	.
.	.	8a-	.
4e- 4d-	.	8b-	.
*Xped	*	*	*
.	.	8ccJ)	.
=72	=72	=72	=72
*ped	*	*	*
4r	2.AA-	2a-	.
4c 4A- 4E-	.	.	.
*Xped	*	*	*
!	!	!	!LO:DY:rj
[>4c [>4A- 4En	.	[>4cc	f
=73	=73	=73	=73
*ped	*	*	*
4c] 4A-]	2.F	4cc]	mf
4c 4A-	.	(<8dd-L/	>
.	.	8cc	.
4c 4A-	.	8b-	.
*Xped	*	*	*
.	.	8a-J	]
=74	=74	=74	=74
*ped	*	*	*
4ryy	2.E-	4.g)	.
4c 4A- 4F	.	.	.
.	.	8f	.
4c 4A- 4F	.	4f^<	.
*Xped	*	*	*
.	.	.	.
=75	=75	=75	=75
4re	2D-	4ff	.
2B- 2F	.	(>8b-L	<
.	.	8cc	.
.	4BB-	8ee-	.
.	.	8dd-J)	[
*v	*v	*	*
!!LO:LB:g=original
=76	=76	=76
.	16qqcc/L	.
.	16qqdd-/	.
.	16qqee-/J	.
*ped	*	*
4FF	4.dd-/	.
4a-> 4c>	.	.
.	8cc	.
4a-> 4c>	4cc^>	.
*Xped	*	*
.	.	.
=77	=77	=77
*^	*	*
*ped	*	*	*
4ryy	2.En	(>8bnL	.
.	.	8cc	.
.	.	8qee-/	.
4g> 4c> 4B->	.	8dd-	<
.	.	8cc	.
4g> 4c> 4B->	.	8ff	.
*Xped	*	*	*
.	.	8ggJ)	.
=78	=78	=78	=78
*ped	*	*	*
4ryy	2F	(>8aa-L	.
.	.	8a-	.
4f> 4c> 4A->	.	8een	.
.	.	8gg	.
4ryy	4AA-/	8ff	.
*Xped	*	*	*
.	.	8fJ)	.
=79	=79	=79	=79
*ped	*	*	*
4ryy	2BB-/	(>8ccL/	>
.	.	8ee-	.
4d- 4G 4F/	.	8dd-	.
*Xped	*	*	*
.	.	8d-	.
4ryy	4BBB-/	8cc	.
.	.	8b-J)	]
*v	*v	*	*
=80	=80	=80
*ped	*	*
4CC	(>8gL	.
.	8cc	<
4en 4G 4C	8bn	.
*Xped	*	*
.	8cc	.
4r	8dd-	.
.	8ddnJ)	[
=81	=81	=81
*^	*	*
*ped	*	*	*
4ryy	2.A-	4ee-	.
4e- 4c	.	(>8ffL	>
.	.	8ee-	.
4e- 4c	.	8dd-	.
*Xped	*	*	*
.	.	8ccJ)	]
=82	=82	=82	=82
*ped	*	*	*
4ryy	2.G	4.b-\	.
4e- 4c 4A-	.	.	.
.	.	8a-/	.
4e- 4c 4A-	.	4a-/	.
*Xped	*	*	*
.	.	.	.
!!LO:PB:g=original
=83	=83	=83	=83
*ped	*	*	*
4ryy	2.F	4aa-	.
4e- 4c 4A-\	.	(>8ccL	.
.	.	8ee-	.
4e- 4c 4A-\	.	8gg	.
*Xped	*	*	*
.	.	8ffJ)	.
=84	=84	=84	=84
*ped	*	*	*
4ryy	2.BB-	4.ee-	.
4dn 4B- 4A-\	.	.	.
.	.	8ddn	.
4dny 4B- 4A-\	.	4dd^<	.
*Xped	*	*	*
.	.	.	.
=85	=85	=85	=85
*ped	*	*	*
4ryy	2.BB-	4.ccc	f
4f 4B- 4B-\	.	.	.
.	.	(>8bb-L	.
4f 4B- 4B-\	.	8aan	.
*Xped	*	*	*
.	.	8aa-XJ)	.
=86	=86	=86	=86
*ped	*	*	*
4ryy	2.BB-	(>8aa-L	>
.	.	8gg	.
4e- 4B- 4G\	.	8ff	.
.	.	8ee-	.
4e- 4B- 4G\	.	8ddn	.
*Xped	*	*	*
.	.	8ccJ)	]
=87	=87	=87	=87
*ped	*	*	*
4ryy	2.BB-	(>8ccL	.
.	.	8b-	.
4f 4B- 4A-X\	.	8an	.
.	.	8b-	.
.	.	8qddn	.
4f 4B- 4A-\	.	8cc	.
*Xped	*	*	*
.	.	8b-J)	.
=88	=88	=88	=88
*ped	*	*	*
4ryy	2.BB-	(>8ccL	.
.	.	8b-	.
4e- 4B- 4G\	.	8an	.
.	.	8b-	.
.	.	8qddn	.
4e- 4B- 4G\	.	8cc	.
*Xped	*	*	*
.	.	8b-J)	.
=89	=89	=89	=89
*ped	*	*	*
4ryy	2.BB-	4b-	p
4dn 4B- 4A-\	.	(>8cccL	>
.	.	8bb-	.
4dny 4B- 4A-\	.	8aan	.
*Xped	*	*	*
.	.	8aa-XJ)	]
*v	*v	*	*
!!LO:LB:g=original
=90	=90	=90
4E-	(<8ff#XL/	.
.	8gg	.
4g 4e- 4B-	8ddn	.
.	8ee-	.
4g- 4c 4An	8e-	.
.	8ccJ)	.
=91	=91	=91
4BB-	(<8b-L/	.
.	8B-	.
4e- 4B-	8g	.
.	8b-	.
4dn 4A-	8f	.
.	8b-J)	.
=92	=92	=92
*^	*	*
4ryy	2E-	2e-	.
4e- 4B- 4G	.	.	.
4ryy	4r	4en	.
=93	=93	=93	=93
*ped	*	*	*
4ryy	2.D-	2f^<	.
4d- 4B- 4F\	.	.	.
4d- 4B- 4F\	.	4g	.
*Xped	*	*	*
.	.	.	.
=94	=94	=94	=94
.	.	16qa-L	.
.	.	16qb-J	.
4ryy	2.BB-	4a-	.
4d- 4A- 4F\	.	(<8gL	.
.	.	8a-	.
4d- 4G 4E-\	.	8cc	.
.	.	8b-J)	.
=95	=95	=95	=95
4ryy	2.E-	4r	.
4c 4A-\	.	(<8dnL	.
.	.	8f)	.
4c 4A-\	.	(<8e-	.
.	.	8a-J)	.
=96	=96	=96	=96
*ped	*	*	*
!LO:TX:b:t=P:znak pedalizacji przed nutą:problem	!	!	!
4ryy	2EE-/	2.c^<	.
4A- 4E-\	.	.	.
4A- 4E-\	4ryy	.	.
*Xped	*	*	*
.	.	.	.
*v	*v	*	*
!!LO:LB:g=original
=97	=97	=97
*ped	*	*
!LO:TX:b:t=P:znak pedalizacji przed nutą:problem	!	!
4EE-	(>8G<L	.
.	8d-	<
4d- 4G 4E-	8e-	.
.	8g	.
4e- 4B- 4G	8dd-	.
*Xped	*	*
.	8ffJ)	.
.	.	[
=98	=98	=98
.	[<8qdd-	.
*ped	*	*
4E-	2ff 2dd-]/	f
4g> 4e-> 4d->	.	.
4g> 4e-> 4d->	4ee- 4dd-/	.
*Xped	*	*
.	.	.
=99	=99	=99
.	16qqee-L	.
.	16qqffJ	.
*ped	*	*
4AA-	4ee- 4cc/	.
4a-> 4e->	8ddnL 8bn	.
.	8ee- 8cc	.
4a-> 4e->	8ff 8dd-X	.
*Xped	*	*
.	8ee-J 8cc	.
=100	=100	=100
*ped	*	*
4AA-	2aa- 2cc	.
4c 4A- 4E-	.	.
4c 4A- 4E-	(>4g	.
*Xped	*	*
.	.	.
=101	=101	=101
*^	*	*
*ped	*	*	*
4ryy	2D-	2f^<	.
4d- 4B- 4F/	.	.	.
4d- 4B- 4F/	4ryy	4g)	.
*Xped	*	*	*
.	.	.	.
=102	=102	=102	=102
.	.	16qa-L	.
.	.	16qb-J	.
*ped	*	*	*
4ryy	2BB-	4a-	.
4d- 4F/	.	8gL	.
.	.	8a-	.
4d- 4G 4E-/	4ryy	8cc^<	.
*Xped	*	*	*
.	.	8b-J	.
=103	=103	=103	=103
*ped	*	*	*
4ryy	2AA-	4r	.
4c 4A- 4E-\	.	8dnL	.
.	.	8f	.
4c 4A- 4E-\	4ryy	8e-	.
*Xped	*	*	*
.	.	8a-J	.
!!LO:LB:g=original
=104	=104	=104	=104
*ped	*	*	*
4ryy	2.AA-	2.c	.
4F 4Dn\	.	.	.
4F 4D\	.	.	.
*Xped	*	*	*
.	.	.	.
*v	*v	*	*
=105	=105	=105
*ped	*	*
!	!	!LO:DY:rj
4GG	(>8G<L	f
.	8c<	.
4c 4G 4E-	8e-	.
.	8g	.
4c 4G 4E-	8.cc	.
*Xped	*	*
.	16ee-Jk)	.
=106	=106	=106
.	[<8qg	.
*ped	*	*
!	!LO:S:s=2:note:problem:note-level slur	!
4GG	2ee- 2g]/	.
4g 4Bn 4G	.	.
4g 4B 4G	[>4ddn [<4f	.
*Xped	*	*
.	.	.
=107	=107	=107
*ped	*	*
4C\	4..ddnX] 4..f]	>
4g 4c 4G	.	.
.	16cc 16e-	.
4g 4c 4G	[>4cc^< [<4e-	.
*Xped	*	*
.	.	.
=108	=108	=108
*ped	*	*
4C\	4..cc] 4..e-]	pp
4g 4c 4G	.	.
.	.	.
.	16cc 16e-	.
4g 4c 4G	[>4cc^< 4e-	.
*Xped	*	*
.	.	.
=109	=109	=109
*^	*	*
*ped	*	*	*
4ryy	2.D-	4cc]	.
4B- 4A-	.	4f^<	.
4B- 4A-	.	4g^<	.
*Xped	*	*	*
.	.	.	.
=110	=110	=110	=110
.	.	16qa-L	.
.	.	16qb-J	.
*ped	*	*	*
4ryy	2.BB-	4a-	.
4d- 4A- 4F\	.	8gL	<
*Xped	*	*	*
.	.	8a-	.
4d- 4G 4E-\	.	8cc	.
.	.	8b-J	[
!!LO:LB:g=original
=111	=111	=111	=111
*ped	*	*	*
4ryy	2.E-	4r	.
4c 4A-/	.	(<8dnL	.
.	.	8f	.
4c 4A-/	.	8e-	.
*Xped	*	*	*
.	.	8a-J)	.
=112	=112	=112	=112
*ped	*	*	*
4ryy	2.EE-/	2.c	.
4c 4A- 4E-\	.	.	.
4A- 4E-\	.	.	.
*Xped	*	*	*
.	.	.	.
*v	*v	*	*
=113	=113	=113
*ped	*	*
4EE-	(>8G<L	<
.	8d-	.
4d- 4G 4E-	8e-	.
.	8g	.
4e- 4B- 4G	8dd-	.
*Xped	*	*
.	8ffJ)	[
=114	=114	=114
.	[<8qdd-	.
*ped	*	*
!	!	!LO:DY:rj
4E-	2ff 2dd-/]	f
4g> 4e-> 4d->	.	.
4g> 4e-> 4d->	4ee- 4dd-/	.
*Xped	*	*
.	.	.
=115	=115	=115
.	16qqee-L	.
.	16qqffJ	.
4AA-	4ee- 4cc/	.
4a-> 4e->	8ddnL 8bn	.
.	8ee- 8cc	.
4a-> 4e->	8ff 8dd-X	.
.	8ee-J 8cc	.
=116	=116	=116
*ped	*	*
4AA-	2aa-^< 2cc	.
4c 4A- 4E-	.	.
4c 4A- 4E-	4g	.
*Xped	*	*
.	.	.
=117	=117	=117
*^	*	*
*ped	*	*	*
4ryy	2D-	2f^<	.
4d- 4B- 4F	.	.	.
4d-/ 4B-/ 4F/	4ryy	4g	.
*Xped	*	*	*
.	.	.	.
!!LO:LB:g=original
=118	=118	=118	=118
.	.	16qa-L	.
.	.	16qb-J	.
*ped	*	*	*
4ryy	2.BB-	4a-	.
4d- 4F\	.	(<8gL	<
.	.	8a-	.
4d- 4G 4E-\	.	8cc	.
*Xped	*	*	*
.	.	8b-J)	[
=119	=119	=119	=119
*ped	*	*	*
4ryy	2.AA-	4r	.
4c 4A- 4E-\	.	(<8dnL	.
.	.	8f	.
4c 4A- 4E-\	.	8e-	.
*Xped	*	*	*
.	.	8a-J)	.
=120	=120	=120	=120
*ped	*	*	*
4ryy	2.EE-	2.c	.
4A- 4E-	.	.	.
4A- 4E-	.	.	.
*Xped	*	*	*
.	.	.	.
=121	=121	=121	=121
*ped	*	*	*
4ryy	2.E-	4r	.
!	!	!LO:TX:a:t=P:crescendo się źle wyświetla:rendering:problem	!
!	!	!LO:TX:a:t=P:w źródle palcowanie dopisane ołówkiem:problem	!
!	!	!	!LO:HP:a:i:t=cresc
4B- 4A-	.	(<8dnL	<
.	.	8e-	.
4B- 4A-	.	8f	.
*Xped	*	*	*
.	.	8gJ)	.
=122	=122	=122	=122
*ped	*	*	*
4re	2.E-	4fT>	.
4dn 4B- 4A-	.	(<8enL	.
.	.	8f	.
4d 4B- 4A-	.	8g	.
*Xped	*	*	*
.	.	8a-J)	.
=123	=123	=123	=123
*ped	*	*	*
4re	2.E-	4a-T>	.
4e- 4d-X	.	(<8gL	.
.	.	8a-	.
4e- 4d-	.	8b-	.
*Xped	*	*	*
.	.	8ccJ)	.
=124	=124	=124	=124
4ryy	2AA-/	2a-	.
4c 4E-\	.	.	.
4r	4ryy	4r	.
*v	*v	*	*
==	==	==
*-	*-	*-
!!title: @{OTL}; @{OPS} @{ONM} publisher: @{PPR}
!!!RDF**kern: > = above
!!!RDF**kern: < = below
!!!RDF**kern: N = linked
!!!RDF**dynam: < = "cresc." fontstyle="bold-italic"
!!!RDF**dynam: > = "dim." fontstyle="bold-italic"
!!!ENC: Wojciech Jakubiak-Danek
!!!END: 2020-01-29
!!!EED: Mateusz Mrugas
!!!EST: revision finished 2020-02-06
!!!rism-genre: Waltz
!!!rism-key: F minor
!!!rism-opus: op. 70, no. 2
!!!rism-title: Waltz in F minor op. 70, no. 2
!!!rism-permalink: https://opac.rism.info/search?id=1001033216&View=rism
!!!rism-773a-OPR: 1001033214
!!!rism-parent-permalink: https://opac.rism.info/search?id=1001033214&View=rism
